X:1
T:Gather Them into the Fold
T:Gather Them into the Fold
T:William Augustine Ogden
T:Attr. to Mary Ann Pepper Kidder, 1872, alt.
T:Public Domain Courtesy of the Cyber Hymnal™
T:Public Domain Courtesy of the Cyber Hymnal™
C:William Augustine Ogden
Z:Public Domain
Z:Courtesy of the Cyber Hymnal™
%%score ( 1 2 ) ( 3 4 )
L:1/8
Q:1/4=100
M:6/8
K:Ab
V:1 treble 
V:2 treble 
V:3 bass 
V:4 bass 
V:1
 [Ec][Ec][Ec] [Ec][DB][Ec] | [CA]3 [CE]3 | [EB][EB][EB] [EB][EA][EB] | [Ec]3- [Ec]2 z | %4
w: 1.~O- pen the door for the|child- ren,|Ten- der- ly ga- ther them|in, *|
w: 2.~O- pen the door for the|child- ren,|See! They are com- ing in|throngs; *|
w: 3.~O- pen the door for the|child- ren,|Take the dear lambs by the|hand; *|
 [Ec][Ec][Ec] [Ec][DB][Ec] | [CA]3 [CE]3 | [EB][EB][EB] [EB][Ec][DB] | [CA]3- [CA]2 z | %8
w: In from the high- ways and|hedg- es,|In from the plac- es of|sin. *|
w: Bid them sit down to the|ban- quet,|Teach them your beau- ti- ful|songs. *|
w: Point them to truth and to|Je- sus,|Point them to Heav- en’s bright|land. *|
 [EB][EB][EB] [EB][EA][EB] | [Ec]3 [Ec]3 | [Ec][Ec][Ec] [Ec][EB][Ec] | %11
w: Some are so young and so|help- less,|Some are so hun- gry and|
w: Pray you the Fa- ther to|bless them,|Pray you that grace may be|
w: Some are so young and so|help- less,|Some are so hun- gry and|
 !fermata![Fd]3- !fermata![Fd]2 z | [Ec][Ec][Ec] [Fd][Ec][GB] | [FA]3 [DF]3 | %14
w: cold; *|O- pen the door for the|child- ren,|
w: giv’n; *|O- pen the door for the|child- ren,|
w: cold; *|O- pen the door for the|child- ren,|
 [CE][CE][CE] [DE][DF][DG] | [CA]3- [CA]2 z ||"^Refrain" B3- BA[EB] | c3- [Ec]2 z | %18
w: Ga- ther them in- to the|fold. *|||
w: “Such is the king- dom of|Heav’n.” *|Ga- * ther them|in, Ga-|
w: Ga- ther them in- to the|fold. *|||
 c3- [Ec][EB][Ec] | [Fd]3- [Fd]2 z | [Ec][Ec][Ec] [Fd][Ec][GB] | [FA]3 [DF]3 | %22
w: ||||
w: * ther them in,||||
w: ||||
 [CE][CE][CE] E!fermata![Ec]!fermata![DB] | [CA]3- [CA]2 z |] %24
w: ||
w: ||
w: ||
V:2
 x6 | x6 | x6 | x6 | x6 | x6 | x6 | x6 | x6 | x6 | x6 | x6 | x6 | x6 | x6 | x6 || (EEE E2) x | %17
 EEE x3 | E E E x3 | x6 | x6 | x6 | x3 E x2 | x6 |] %24
V:3
 A,A,A, A,A,A, | A,3 A,3 | [E,G,][E,G,][E,G,] [E,G,][C,A,][E,G,] | A,3- A,2 z | A,A,A, A,A,A, | %5
w: Ga- ther them in, oh, ga-|ther them||in, *|Ga- ther, oh, ga- ther them|
 A,3 A,3 | [E,G,][E,G,][E,G,] [E,G,][E,A,][E,G,] | [A,,A,]3- [A,,A,]2 z | %8
w: in; O-|||
 [E,G,][E,G,][E,G,] [E,G,][E,F,][E,G,] | A,3 A,3 | A,A,A, A,[E,G,]A, | [D,A,]3- [D,A,]2 z | %12
w: |pen the|door for the child- * ren,||
 [A,,A,][A,,A,][A,,A,] [A,,A,][A,,A,][A,,A,] | [D,A,]3 [D,D]3 | %14
w: ||
 [E,G,][E,G,][E,G,] [E,G,][E,A,][E,B,] | [A,,A,]3- [A,,A,]2 z || %16
w: ||
 [E,G,][E,G,][E,G,] ([E,G,][C,A,])[E,G,] | A,A,A, A,2 z | A,A,A, A,[E,G,]A, | [D,A,]3- [D,A,]2 z | %20
w: Ga- ther them in- * to|the fold. * *|||
 [A,,A,][A,,A,][A,,A,] [A,,A,][A,,A,][A,,A,] | [D,A,]3 [D,D]3 | %22
w: ||
 [E,A,][E,A,][E,A,] [E,C]!fermata![E,A,]!fermata![E,G,] | [A,,A,]3- [A,,A,]2 z |] %24
w: ||
V:4
 A,A,A, A,A,A, | A,3 A,3 | x6 | A,3- A,2 x | A,A,A, A,A,A, | A,3 A,3 | x6 | x6 | x6 | A,3 A,3 | %10
 A,A,A, A,A, x | x6 | x6 | x6 | x6 | x6 || x6 | A,A,A, A,2 x | A,A,A, A,A, x | x6 | x6 | x6 | x6 | %23
 x6 |] %24

